X: 27430
T: Moll Roe
R: slip jig
M: 9/8
K: Dmajor
A|:Add efd cde|f3 def g2e|Add efd cde|f3 gec d2A:|
|:a3 ged cde|a3 gef g2e|a3 ged cde|1 f3 gec d2A:|2 f3 gec d3||

